X: 7
T: The Drunken Landlady
R: reel
M: 4/4
L: 1/8
K: Edor
|:BE E2 BAFA|BE E2 BAFB|ABAF D3E|FAAd BAFA|
BE E2 BAFA|B2 dB BAFB|A2 Bc dfec|dBAF E4:||
|:Beed e2 de|f2 df efdB|ABAF D3E|FAAd BAFA|
Beed e2 de|f2 df efdB|A2 Bc dfec|dBAF E4:||


Tune 363	Setting 13163

